X:1
T:Title
%%score { ( 1 3 ) | ( 2 4 ) }
L:1/8
M:6/8
K:D
V:1 treble nm="Grand Piano"
V:3 treble 
V:2 bass 
V:4 bass 
V:1
 z3 z2[Q:1/4=92] [FA] | [Fd]2 [Fc] ed[GB] | [GB]2 [FA] [DF]2 [DF] | %3
 .[CA]2[K:bass] [F,=C^D] [G,^CE]2[K:treble] [G,C=F] |[M:5/8] [DF]-[DF]- [DF]3 |[M:1/8] [A,FA] | %6
[M:3/4] [Fd]2 [Fc]e d[GB] | [GB]2 [FA] [DF]2 [DF] | .[CA]2[K:bass] [F,=C^D] [A,^CF]2 [G,A,E] | %9
 [F,A,D]6 | [CA]2 [B,^D] [CE]3 | A2 =F ^F2 A | dF [B,DF] [DE^G]2 [DEG] | %13
[M:5/8] [CEA]-[CEA]- [CEA]3 |[M:1/8] [A,FA] |[M:3/4] [Fd]2 [Fc]e d[GB] | [GB]2 [FA] [DF]2 [DF] | %17
 .[CA]2[K:bass] [F,=C^D] [A,^CF]2 [G,A,E] |[M:5/8] [F,A,D]-[F,A,D]- [F,A,D]3 |] %19
V:2
 z3 z2 [D,A,] | [D,A,]2 [D,^A,] [D,B,]2 [D,D] | [D,D]2 [D,D] [D,A,]2 [D,F,] | z GA,, A,,2 A,, | %4
[M:5/8] z z2 A,2 |[M:1/8] D, |[M:3/4] [D,A,]2 [D,^A,] [D,B,]2 [D,D] | [D,D]2 [D,D] [D,A,]2 [D,F,] | %8
 z G A,, A,,2 A,, | D,6 | [A,,E,]2 [A,,A,] [A,,A,]3 | [D,F,D]2 [D,^G,D] [D,A,D]2 [F,A,D] | %12
 F,B, F, E,2 E, |[M:5/8] A,,-A,,- A,,3 |[M:1/8] D, |[M:3/4] [D,A,]2 [D,^A,] [D,B,]2 [D,D] | %16
 [D,D]2 [D,D] [D,A,]2 [D,F,] | z G A,, A,,2 A,, |[M:5/8] D,-D,- D,3 |] %19
V:3
 x6 | z3 .G3 | x6 | x2[K:bass] x3[K:treble] x |[M:5/8] F,3 z2 |[M:1/8] x |[M:3/4] z2 z .G3 | x6 | %8
 x2[K:bass] x4 | x6 | x6 | x6 | D2 z2 z2 |[M:5/8] x5 |[M:1/8] x |[M:3/4] z2 z .G3 | x6 | %17
 x2[K:bass] x4 |[M:5/8] x5 |] %19
V:4
 x6 | x6 | x6 | .[A,,E,]3 z3 |[M:5/8] D,-D,- D,3 |[M:1/8] x |[M:3/4] x6 | x6 | [A,,E,]2 z2 z2 | %9
 x6 | x6 | x6 | B,,2 z2 z2 |[M:5/8] x5 |[M:1/8] x |[M:3/4] x6 | x6 | [A,,E,]2 z2 z2 |[M:5/8] x5 |] %19

